X:2026 
T:Carval Yoseph
T:(Tune - Babes in the wood) 
C:John Moore, Ardary, Arbory
O:Isle of Man
S:Traditional carol
Z:Clague collection
B:Kiaull Vannin #26  
N:'Second tune J.F.S.S'. See also KV 3, 9, 127 and 361
M:6/4
L:1/4
K:D 
DDF|A3 B/A/FE|D3 D (D-F)|A3 B(A-F)|E3 DFG|A3 BAF|E3 D(E-F)|G3 F(E-D)|)-|D3||
